src/gui/emoticons/explode.svg

<svg xmlns="http://www.w3.org/2000/svg" xmlns:xlink="http://www.w3.org/1999/xlink" width="16pt" height="16pt" version="1.1" viewBox="0 0 16 16"><defs><radialGradient id="radial0" cx="47.113" cy="41.023" r="59.665" fx="47.113" fy="41.023" gradientTransform="matrix(0.125,0,0,0.125,0,0)" gradientUnits="userSpaceOnUse"><stop offset=".384" style="stop-color:#fb8c00;stop-opacity:1"/><stop offset=".783" style="stop-color:#ef6c00;stop-opacity:1"/></radialGradient><filter id="alpha" width="100%" height="100%" x="0%" y="0%" filterUnits="objectBoundingBox"><feColorMatrix in="SourceGraphic" type="matrix" values="0 0 0 0 1 0 0 0 0 1 0 0 0 0 1 0 0 0 1 0"/></filter><mask id="mask0"><g filter="url(#alpha)"><rect width="16" height="16" x="0" y="0" style="fill:#000;fill-opacity:.2;stroke:none"/></g></mask><clipPath id="clip1"><rect width="16" height="16" x="0" y="0"/></clipPath><g id="surface5" clip-path="url(#clip1)"><path style="stroke:none;fill-rule:nonzero;fill:#424242;fill-opacity:1" d="M 6.703125 1.394531 L 7.300781 2.84375 C 7.46875 3.246094 7.859375 3.507812 8.296875 3.507812 C 8.640625 3.507812 8.953125 3.347656 9.160156 3.070312 L 10.03125 1.882812 L 10.042969 3.113281 C 10.046875 3.574219 10.425781 3.949219 10.890625 3.949219 C 11.066406 3.949219 11.234375 3.894531 11.378906 3.789062 L 14.640625 1.4375 L 11.894531 5.769531 C 11.78125 5.949219 11.773438 6.175781 11.875 6.363281 C 11.976562 6.546875 12.171875 6.664062 12.382812 6.667969 L 14.203125 6.683594 L 12.570312 7.339844 C 12.339844 7.433594 12.195312 7.652344 12.207031 7.902344 C 12.214844 8.152344 12.375 8.363281 12.613281 8.4375 L 14.039062 8.894531 L 12.28125 9.289062 C 12.097656 9.328125 11.945312 9.457031 11.871094 9.632812 C 11.796875 9.804688 11.8125 10.003906 11.910156 10.164062 L 13.851562 13.300781 L 11.78125 11.511719 C 11.644531 11.394531 11.476562 11.328125 11.300781 11.328125 C 11.082031 11.328125 10.867188 11.429688 10.726562 11.601562 C 10.585938 11.773438 10.53125 11.996094 10.574219 12.210938 C 10.578125 12.21875 10.578125 12.226562 10.578125 12.234375 L 11.175781 14.484375 L 9.488281 12.359375 C 9.476562 12.34375 9.464844 12.328125 9.449219 12.316406 C 9.289062 12.171875 9.085938 12.089844 8.875 12.089844 C 8.445312 12.089844 8.082031 12.40625 8.023438 12.828125 L 7.777344 14.09375 L 7.292969 13.296875 C 7.125 12.921875 6.757812 12.679688 6.34375 12.679688 C 6.085938 12.679688 5.839844 12.773438 5.648438 12.949219 L 3.75 14.679688 L 4.472656 12.683594 C 4.5625 12.4375 4.527344 12.175781 4.378906 11.960938 C 4.226562 11.75 3.984375 11.621094 3.726562 11.621094 C 3.578125 11.621094 3.4375 11.660156 3.308594 11.738281 L 1.738281 12.703125 L 3.203125 10.933594 C 3.34375 10.765625 3.375 10.53125 3.289062 10.328125 C 3.203125 10.140625 3.03125 10.007812 2.824219 9.984375 L 1.515625 9.6875 L 2.546875 9.058594 C 2.859375 8.867188 3.039062 8.523438 3.015625 8.15625 C 2.996094 7.792969 2.773438 7.472656 2.441406 7.320312 L 1.375 6.835938 L 2.4375 6.714844 C 2.910156 6.660156 3.300781 6.367188 3.488281 5.933594 C 3.675781 5.5 3.621094 5.015625 3.339844 4.636719 L 2.207031 3.117188 L 3.84375 4.421875 C 3.96875 4.523438 4.117188 4.574219 4.273438 4.574219 C 4.496094 4.574219 4.710938 4.464844 4.839844 4.28125 C 4.972656 4.101562 5.003906 3.871094 4.929688 3.65625 L 4.757812 3.148438 L 5.023438 3.433594 C 5.1875 3.609375 5.414062 3.707031 5.652344 3.707031 C 6.089844 3.707031 6.460938 3.382812 6.515625 2.949219 L 6.703125 1.394531 M 6.617188 0.539062 C 6.519531 0.539062 6.421875 0.601562 6.410156 0.722656 L 6.140625 2.90625 C 6.109375 3.171875 5.882812 3.335938 5.652344 3.335938 C 5.523438 3.335938 5.394531 3.285156 5.296875 3.175781 L 4.503906 2.328125 C 4.460938 2.277344 4.40625 2.257812 4.351562 2.257812 C 4.222656 2.257812 4.101562 2.386719 4.152344 2.535156 L 4.574219 3.777344 C 4.648438 4.003906 4.472656 4.199219 4.269531 4.199219 C 4.203125 4.199219 4.136719 4.179688 4.074219 4.128906 L 1.441406 2.023438 C 1.398438 1.992188 1.355469 1.976562 1.3125 1.976562 C 1.15625 1.976562 1.027344 2.160156 1.140625 2.3125 L 3.039062 4.859375 C 3.464844 5.4375 3.109375 6.257812 2.394531 6.339844 L 0.734375 6.53125 C 0.523438 6.554688 0.480469 6.84375 0.671875 6.929688 L 2.289062 7.660156 C 2.734375 7.859375 2.773438 8.480469 2.355469 8.734375 L 1.144531 9.472656 C 0.785156 9.691406 0.859375 9.988281 1.277344 10.015625 L 2.765625 10.351562 C 2.9375 10.359375 3.023438 10.5625 2.917969 10.695312 L 0.816406 13.230469 C 0.695312 13.378906 0.816406 13.574219 0.976562 13.574219 C 1.011719 13.574219 1.050781 13.5625 1.085938 13.542969 L 3.511719 12.054688 C 3.582031 12.011719 3.65625 11.992188 3.730469 11.992188 C 3.996094 11.992188 4.230469 12.261719 4.121094 12.554688 L 3.171875 15.179688 C 3.117188 15.332031 3.238281 15.460938 3.371094 15.460938 C 3.417969 15.460938 3.464844 15.445312 3.507812 15.40625 L 5.902344 13.222656 C 6.03125 13.105469 6.191406 13.050781 6.347656 13.050781 C 6.601562 13.050781 6.855469 13.199219 6.960938 13.464844 L 7.566406 14.460938 C 7.652344 14.675781 7.765625 14.785156 7.867188 14.785156 C 7.976562 14.785156 8.070312 14.660156 8.097656 14.414062 L 8.398438 12.886719 C 8.425781 12.628906 8.648438 12.464844 8.875 12.464844 C 8.988281 12.464844 9.101562 12.503906 9.195312 12.589844 L 11.144531 15.042969 C 11.273438 15.164062 11.40625 15.226562 11.511719 15.226562 C 11.640625 15.226562 11.722656 15.121094 11.675781 14.894531 L 10.945312 12.136719 C 10.894531 11.890625 11.089844 11.703125 11.300781 11.703125 C 11.382812 11.703125 11.464844 11.730469 11.539062 11.792969 L 14.425781 14.289062 C 14.46875 14.328125 14.515625 14.34375 14.5625 14.34375 C 14.707031 14.34375 14.835938 14.175781 14.738281 14.019531 L 12.230469 9.964844 C 12.152344 9.84375 12.222656 9.683594 12.363281 9.652344 L 14.714844 9.128906 C 14.925781 9.082031 14.9375 8.789062 14.734375 8.722656 L 12.726562 8.082031 C 12.539062 8.019531 12.53125 7.761719 12.710938 7.6875 L 15.117188 6.71875 C 15.328125 6.632812 15.269531 6.316406 15.039062 6.3125 L 12.386719 6.292969 C 12.222656 6.292969 12.121094 6.109375 12.210938 5.972656 L 15.417969 0.914062 C 15.515625 0.761719 15.386719 0.589844 15.238281 0.589844 C 15.199219 0.589844 15.15625 0.601562 15.117188 0.632812 L 11.160156 3.484375 C 11.078125 3.546875 10.980469 3.578125 10.890625 3.578125 C 10.648438 3.578125 10.421875 3.386719 10.417969 3.113281 L 10.402344 1.382812 C 10.398438 1.253906 10.296875 1.175781 10.191406 1.175781 C 10.128906 1.175781 10.066406 1.203125 10.023438 1.261719 L 8.859375 2.851562 C 8.714844 3.042969 8.503906 3.136719 8.296875 3.136719 C 8.03125 3.136719 7.765625 2.984375 7.648438 2.703125 L 6.8125 0.671875 C 6.773438 0.578125 6.695312 0.539062 6.617188 0.539062 Z M 6.617188 0.539062"/></g></defs><g id="surface1"><path style="stroke:none;fill-rule:nonzero;fill:url(#radial0)" d="M 8.855469 2.847656 L 10.023438 1.257812 C 10.140625 1.097656 10.398438 1.179688 10.398438 1.378906 L 10.417969 3.109375 C 10.421875 3.488281 10.851562 3.707031 11.160156 3.484375 L 15.117188 0.628906 C 15.300781 0.492188 15.539062 0.714844 15.414062 0.910156 L 12.210938 5.972656 C 12.125 6.109375 12.222656 6.292969 12.386719 6.292969 L 15.042969 6.3125 C 15.269531 6.316406 15.328125 6.632812 15.117188 6.71875 L 12.710938 7.6875 C 12.53125 7.761719 12.539062 8.019531 12.726562 8.082031 L 14.734375 8.722656 C 14.941406 8.789062 14.925781 9.082031 14.71875 9.128906 L 12.363281 9.652344 C 12.222656 9.683594 12.15625 9.84375 12.230469 9.964844 L 14.742188 14.023438 C 14.867188 14.226562 14.609375 14.449219 14.425781 14.292969 L 11.535156 11.792969 C 11.273438 11.566406 10.875 11.800781 10.945312 12.140625 L 11.675781 14.898438 C 11.753906 15.296875 11.441406 15.316406 11.140625 15.042969 L 9.195312 12.589844 C 8.90625 12.328125 8.441406 12.5 8.394531 12.890625 L 8.097656 14.414062 C 8.039062 14.894531 7.742188 14.910156 7.5625 14.464844 L 6.957031 13.464844 C 6.785156 13.039062 6.242188 12.914062 5.902344 13.226562 L 3.507812 15.410156 C 3.34375 15.554688 3.09375 15.390625 3.167969 15.183594 L 4.121094 12.554688 C 4.253906 12.183594 3.84375 11.851562 3.507812 12.058594 L 1.085938 13.539062 C 0.886719 13.664062 0.667969 13.410156 0.816406 13.230469 L 2.917969 10.691406 C 3.023438 10.5625 2.9375 10.359375 2.765625 10.351562 L 1.277344 10.015625 C 0.859375 9.988281 0.785156 9.6875 1.144531 9.472656 L 2.355469 8.734375 C 2.773438 8.480469 2.734375 7.859375 2.289062 7.660156 L 0.671875 6.929688 C 0.480469 6.84375 0.523438 6.554688 0.734375 6.53125 L 2.394531 6.34375 C 3.109375 6.261719 3.464844 5.4375 3.039062 4.859375 L 1.144531 2.3125 C 0.996094 2.117188 1.25 1.871094 1.441406 2.023438 L 4.078125 4.128906 C 4.324219 4.328125 4.675781 4.078125 4.574219 3.78125 L 4.152344 2.539062 C 4.078125 2.324219 4.351562 2.164062 4.503906 2.328125 L 5.296875 3.179688 C 5.578125 3.484375 6.089844 3.320312 6.140625 2.90625 L 6.410156 0.722656 C 6.433594 0.507812 6.726562 0.46875 6.808594 0.667969 L 7.648438 2.703125 C 7.855469 3.203125 8.535156 3.289062 8.855469 2.847656 Z M 8.855469 2.847656"/><path style="stroke:none;fill-rule:nonzero;fill:#ffeb3b;fill-opacity:1" d="M 10.898438 5.199219 C 11.164062 5.078125 11.300781 5.265625 11.136719 5.511719 C 10.910156 5.851562 10.410156 6.496094 10.21875 6.699219 C 10.015625 6.910156 10.089844 7.253906 10.359375 7.363281 L 11.300781 7.539062 C 11.488281 7.617188 11.476562 7.890625 11.28125 7.949219 L 10.417969 8.164062 C 10.136719 8.246094 10.046875 8.59375 10.25 8.804688 L 11.167969 10.078125 C 11.269531 10.195312 11.140625 10.371094 10.996094 10.3125 L 9.664062 9.652344 C 9.132812 9.351562 8.609375 9.542969 8.421875 10.125 L 7.988281 11.492188 C 7.957031 11.640625 7.746094 11.652344 7.699219 11.507812 L 7.359375 10.324219 C 7.257812 9.980469 6.824219 9.867188 6.570312 10.121094 L 5.457031 11.230469 C 5.328125 11.335938 5.148438 11.179688 5.238281 11.035156 L 5.773438 9.917969 C 5.894531 9.726562 5.660156 9.265625 5.433594 9.277344 L 4.4375 9.207031 C 4.265625 9.207031 4.113281 9.0625 4.128906 8.890625 C 4.140625 8.789062 4.199219 8.695312 4.308594 8.644531 C 4.59375 8.515625 5.101562 8.234375 5.542969 7.980469 C 5.988281 7.722656 6.117188 7.140625 5.820312 6.71875 L 4.871094 5.460938 C 4.695312 5.238281 4.929688 4.925781 5.195312 5.035156 L 6.925781 6.265625 C 7.226562 6.390625 7.558594 6.191406 7.597656 5.867188 L 7.75 4.535156 C 7.765625 4.394531 7.957031 4.355469 8.027344 4.476562 L 8.574219 5.570312 C 8.769531 5.960938 9.242188 6.128906 9.640625 5.945312 Z M 10.898438 5.199219"/><use mask="url(#mask0)" xlink:href="#surface5"/></g></svg>

<svg xmlns="http://www.w3.org/2000/svg" xmlns:xlink="http://www.w3.org/1999/xlink" width="16pt" height="16pt" viewBox="0 0 16 16"><defs><radialGradient id="c" cx="47.113" cy="41.023" r="59.665" fx="47.113" fy="41.023" gradientTransform="scale(.125)" gradientUnits="userSpaceOnUse"><stop offset=".384" style="stop-color:#fb8c00;stop-opacity:1"/><stop offset=".783" style="stop-color:#ef6c00;stop-opacity:1"/></radialGradient><clipPath id="b"><path d="M0 0h16v16H0z"/></clipPath><filter id="a" width="100%" height="100%" x="0%" y="0%" filterUnits="objectBoundingBox"><feColorMatrix in="SourceGraphic" values="0 0 0 0 1 0 0 0 0 1 0 0 0 0 1 0 0 0 1 0"/></filter><mask id="d"><g filter="url(#a)"><path d="M0 0h16v16H0z" style="fill:#000;fill-opacity:.2;stroke:none"/></g></mask><g id="e" clip-path="url(#b)"><path d="m6.703 1.395.598 1.449a1.077 1.077 0 0 0 1.86.226l.87-1.187.012 1.23c.004.461.383.836.848.836a.82.82 0 0 0 .488-.16l3.262-2.351-2.746 4.332a.59.59 0 0 0-.02.593c.102.184.297.301.508.305l1.82.016-1.633.656a.57.57 0 0 0-.363.562c.008.25.168.461.406.535l1.426.458-1.758.394a.58.58 0 0 0-.41.344.58.58 0 0 0 .04.531l1.94 3.137-2.07-1.79a.74.74 0 0 0-.48-.183.75.75 0 0 0-.574.274.73.73 0 0 0-.149.632l.598 2.25-1.688-2.125q-.016-.023-.039-.043a.86.86 0 0 0-.574-.226.86.86 0 0 0-.852.738l-.246 1.266-.484-.797a1.037 1.037 0 0 0-1.645-.348L3.75 14.68l.723-1.995a.78.78 0 0 0-.094-.723.795.795 0 0 0-1.07-.223l-1.57.965 1.464-1.77a.59.59 0 0 0 .086-.605.59.59 0 0 0-.465-.344l-1.308-.296 1.03-.63a.98.98 0 0 0 .47-.902.98.98 0 0 0-.575-.836l-1.066-.484 1.063-.121a1.3 1.3 0 0 0 1.05-.781 1.29 1.29 0 0 0-.148-1.297l-1.133-1.52 1.637 1.305a.67.67 0 0 0 .43.152.696.696 0 0 0 .656-.918l-.172-.508.265.286a.869.869 0 0 0 1.492-.484zM6.617.539c-.097 0-.195.063-.207.184l-.27 2.183a.488.488 0 0 1-.843.27l-.793-.848a.2.2 0 0 0-.152-.07c-.13 0-.25.129-.2.277l.422 1.242a.32.32 0 0 1-.5.352L1.441 2.023a.22.22 0 0 0-.129-.046c-.156 0-.285.183-.171.335L3.039 4.86a.932.932 0 0 1-.644 1.48l-1.66.192c-.212.024-.255.313-.063.399l1.617.73c.445.2.484.82.066 1.074l-1.21.739c-.36.218-.286.515.132.543l1.489.336c.172.007.257.21.152.343L.816 13.23c-.12.149 0 .344.16.344a.23.23 0 0 0 .11-.031l2.426-1.488a.418.418 0 0 1 .61.5l-.95 2.625a.21.21 0 0 0 .2.28.2.2 0 0 0 .136-.054l2.394-2.183a.658.658 0 0 1 1.059.242l.605.996c.086.215.2.324.301.324.11 0 .203-.125.23-.37l.301-1.528a.476.476 0 0 1 .797-.297l1.95 2.453c.128.121.261.184.367.184.129 0 .21-.106.164-.332l-.73-2.758a.36.36 0 0 1 .355-.434c.082 0 .164.027.238.09l2.887 2.496c.043.04.09.055.136.055.145 0 .274-.168.176-.324L12.23 9.965a.207.207 0 0 1 .133-.313l2.352-.523c.21-.047.223-.34.02-.406l-2.008-.641a.21.21 0 0 1-.016-.395l2.406-.968c.211-.086.153-.403-.078-.407l-2.652-.019a.208.208 0 0 1-.176-.32L15.418.914c.098-.152-.031-.324-.18-.324a.2.2 0 0 0-.12.043L11.16 3.484a.45.45 0 0 1-.27.094.47.47 0 0 1-.472-.465l-.016-1.73a.209.209 0 0 0-.379-.121L8.86 2.852a.7.7 0 0 1-1.21-.148L6.811.671a.205.205 0 0 0-.195-.133m0 0" style="stroke:none;fill-rule:nonzero;fill:#424242;fill-opacity:1"/></g></defs><path d="m8.855 2.848 1.168-1.59c.118-.16.375-.078.375.12l.02 1.731a.468.468 0 0 0 .742.375L15.117.63c.184-.137.422.086.297.281l-3.203 5.063a.21.21 0 0 0 .176.32l2.656.02c.227.003.285.32.074.406l-2.406.968a.21.21 0 0 0 .016.395l2.007.64c.207.067.192.36-.015.407l-2.356.523a.21.21 0 0 0-.133.313l2.512 4.058c.125.204-.133.426-.316.27l-2.89-2.5a.361.361 0 0 0-.59.348l.73 2.757c.078.399-.235.418-.535.145L9.195 12.59a.481.481 0 0 0-.8.3l-.297 1.524c-.059.48-.356.496-.536.05l-.605-1a.657.657 0 0 0-1.055-.237L3.508 15.41c-.164.145-.414-.02-.34-.226l.953-2.63a.418.418 0 0 0-.613-.495l-2.422 1.48c-.2.125-.418-.129-.27-.309l2.102-2.539a.21.21 0 0 0-.152-.34l-1.489-.335c-.418-.028-.492-.328-.132-.543l1.21-.739A.609.609 0 0 0 2.29 7.66L.672 6.93C.48 6.844.523 6.555.734 6.53l1.66-.187a.935.935 0 0 0 .645-1.485L1.145 2.313c-.149-.196.105-.442.296-.29L4.078 4.13c.246.2.598-.05.496-.348L4.152 2.54c-.074-.215.2-.375.352-.21l.793.85c.281.305.793.141.844-.273L6.41.723c.023-.215.316-.254.398-.055l.84 2.035c.206.5.886.586 1.206.145m0 0" style="stroke:none;fill-rule:nonzero;fill:url(#c)"/><path d="M10.898 5.2c.266-.122.403.066.239.312-.227.34-.727.984-.918 1.187a.408.408 0 0 0 .14.664l.942.176c.187.078.176.352-.02.41l-.863.215a.386.386 0 0 0-.168.64l.918 1.274c.102.117-.027.293-.172.235l-1.332-.66c-.531-.301-1.055-.11-1.242.472l-.434 1.367c-.031.149-.242.16-.289.016l-.34-1.184a.474.474 0 0 0-.789-.203l-1.113 1.11c-.129.105-.309-.051-.219-.196l.535-1.117c.122-.191-.113-.652-.34-.64l-.995-.071c-.172 0-.325-.145-.31-.316a.3.3 0 0 1 .18-.246c.286-.13.794-.41 1.235-.665A.874.874 0 0 0 5.82 6.72L4.871 5.46c-.176-.223.059-.535.324-.426l1.73 1.23c.302.126.634-.074.673-.398l.152-1.332c.016-.14.207-.18.277-.058l.547 1.093a.814.814 0 0 0 1.067.375Zm0 0" style="stroke:none;fill-rule:nonzero;fill:#ffeb3b;fill-opacity:1"/><use xlink:href="#e" mask="url(#d)"/></svg>
